icons/vector.svg

<?xml version="1.0" encoding="UTF-8" standalone="no"?>
<svg
   xmlns:dc="http://purl.org/dc/elements/1.1/"
   xmlns:cc="http://creativecommons.org/ns#"
   xmlns:rdf="http://www.w3.org/1999/02/22-rdf-syntax-ns#"
   xmlns:svg="http://www.w3.org/2000/svg"
   xmlns="http://www.w3.org/2000/svg"
   id="svg4"
   viewBox="0 0 50 50"
   version="1.1"
   width="50"
   height="50">
  <metadata
     id="metadata10">
    <rdf:RDF>
      <cc:Work
         rdf:about="">
        <dc:format>image/svg+xml</dc:format>
        <dc:type
           rdf:resource="http://purl.org/dc/dcmitype/StillImage" />
        <dc:title></dc:title>
      </cc:Work>
    </rdf:RDF>
  </metadata>
  <defs
     id="defs8" />
  <path
     id="path816"
     d="m 20,7.5 c 0,0 -2.5,0 -2.5,2.5 v 2.5 H 11.25 C 10.546269,11.026055 9.0547194,10 7.3125,10 c -2.4162457,0 -4.375,1.958755 -4.375,4.375 0,2.416247 1.9587543,4.375 4.375,4.375 1.7422194,0 3.233769,-1.026054 3.9375,-2.5 h 4.130859 C 11.220177,18.406206 7.1267577,22.430146 6.3828125,30 H 5 c 0,0 -2.5,0 -2.5,2.5 V 40 c 0,2.5 2.5,2.5 2.5,2.5 h 7.5 c 0,0 2.5,0 2.5,-2.5 v -7.5 c 0,0 0,-2.5 -2.5,-2.5 h -1.082031 c 0.681907,-4.921947 3.368167,-7.690747 6.173828,-9.248047 C 18.037032,22.495183 20,22.5 20,22.5 h 10 c 0,0 1.962968,-0.0048 2.408203,-1.748047 2.805661,1.5573 5.491921,4.3261 6.173828,9.248047 H 37.5 c 0,0 -2.5,0 -2.5,2.5 V 40 c 0,2.5 2.5,2.5 2.5,2.5 H 45 c 0,0 2.5,0 2.5,-2.5 v -7.5 c 0,0 0,-2.5 -2.5,-2.5 H 43.617188 C 42.873242,22.430146 38.779823,18.406206 34.619141,16.25 H 38.375 c 0.703731,1.473946 2.195281,2.5 3.9375,2.5 2.416246,0 4.375,-1.958753 4.375,-4.375 0,-2.416245 -1.958754,-4.375 -4.375,-4.375 -1.742219,0 -3.233769,1.026055 -3.9375,2.5 H 32.5 V 10 c 0,0 0,-2.5 -2.5,-2.5 z" />
</svg>

<?xml version="1.0" encoding="UTF-8"?>
<svg width="50" height="50" version="1.1" viewBox="0 0 50 50" xmlns="http://www.w3.org/2000/svg">
<path d="m20 7.5s-2.5 0-2.5 2.5v2.5h-6.25c-0.70373-1.4739-2.1953-2.5-3.9375-2.5-2.4162 0-4.375 1.9588-4.375 4.375 0 2.4162 1.9588 4.375 4.375 4.375 1.7422 0 3.2338-1.0261 3.9375-2.5h4.1309c-4.1607 2.1562-8.2541 6.1801-8.998 13.75h-1.3828s-2.5 0-2.5 2.5v7.5c0 2.5 2.5 2.5 2.5 2.5h7.5s2.5 0 2.5-2.5v-7.5s0-2.5-2.5-2.5h-1.082c0.68191-4.9219 3.3682-7.6907 6.1738-9.248 0.44524 1.7432 2.4082 1.748 2.4082 1.748h10s1.963-0.0048 2.4082-1.748c2.8057 1.5573 5.4919 4.3261 6.1738 9.248h-1.082s-2.5 0-2.5 2.5v7.5c0 2.5 2.5 2.5 2.5 2.5h7.5s2.5 0 2.5-2.5v-7.5s0-2.5-2.5-2.5h-1.3828c-0.74395-7.5699-4.8374-11.594-8.998-13.75h3.7559c0.70373 1.4739 2.1953 2.5 3.9375 2.5 2.4162 0 4.375-1.9588 4.375-4.375 0-2.4162-1.9588-4.375-4.375-4.375-1.7422 0-3.2338 1.0261-3.9375 2.5h-5.875v-2.5s0-2.5-2.5-2.5z"/>
</svg>
